X: 24699
T: MacNeils Of Ugadale, The
R: jig
M: 6/8
K: Amajor
d3|:cdB BAA|cee ecA|fec efa|aec B2 d|
cdB BAA|cee ecA|cdB efc|1 A3 "tr"A2 d:|2 A3 "tr"A2 e||
|:agf fea|efe ece|agf fea|ecA B2 e|
agf fea|efe ecA|cdB efc|1 A3 "tr"A2 e:|2 A3 "tr"A2 e||

